<?xml version="1.0" encoding="UTF-8"?>
<map version="1.10" tiledversion="1.10.2" orientation="orthogonal" renderorder="right-down" width="40" height="24" tilewidth="32" tileheight="32" infinite="0" nextlayerid="13" nextobjectid="256">
 <editorsettings>
  <export target="../src/levels/Zero/Zero.json" format="json"/>
 </editorsettings>
 <tileset firstgid="1" source="../main.tsx"/>
 <tileset firstgid="277" source="../building-objects.tsx"/>
 <tileset firstgid="409" source="../plane-objects.tsx"/>
 <tileset firstgid="544" source="../hero.tsx"/>
 <layer id="1" name="prototype" width="40" height="24" visible="0" locked="1">
  <data encoding="csv">
86,86,86,86,86,86,86,86,86,86,86,86,86,86,86,86,86,86,86,86,86,86,86,86,86,86,86,86,86,86,86,86,86,86,86,86,86,86,86,86,
86,86,86,86,86,187,86,86,86,86,86,85,85,85,85,85,86,86,86,86,86,86,86,86,86,86,5,5,5,5,5,5,5,86,86,86,86,86,86,86,
86,86,86,86,86,187,86,86,86,86,85,85,5,5,5,85,85,85,85,86,98,5,5,5,5,5,5,5,5,5,5,5,208,85,86,86,86,86,86,86,
86,86,86,86,108,187,86,86,86,86,85,5,5,5,5,5,5,5,85,85,5,5,5,5,5,5,5,5,5,5,5,5,208,85,85,86,86,86,86,86,
86,86,86,86,86,187,5,86,86,96,5,5,5,5,5,5,5,5,5,85,208,5,5,5,5,5,5,5,79,79,5,208,5,5,85,86,86,86,86,86,
86,86,86,98,5,79,5,86,86,96,5,5,5,5,5,5,5,5,5,5,208,5,5,5,5,5,5,79,79,5,5,208,5,85,85,85,86,86,86,86,
86,86,85,5,5,79,5,85,86,86,85,187,85,5,5,5,79,5,5,5,5,208,5,5,79,79,79,79,5,5,208,5,5,85,85,85,85,86,86,86,
86,85,5,5,5,79,5,85,85,85,5,5,85,85,5,5,79,79,5,5,5,208,5,5,5,79,5,5,5,208,208,5,85,85,5,5,5,85,86,86,
85,85,5,5,5,79,5,85,85,85,5,5,5,85,85,5,5,79,5,5,5,5,208,5,5,79,5,5,208,208,5,5,188,188,79,79,5,5,85,85,
85,5,5,5,5,79,79,5,85,85,5,5,5,5,85,5,5,79,79,79,79,5,208,208,208,260,208,208,208,5,5,5,85,85,5,79,5,5,5,85,
85,5,5,5,5,5,79,5,85,85,5,5,5,5,85,85,5,5,5,5,79,5,5,208,208,260,208,208,5,5,5,85,85,85,5,79,5,5,5,85,
85,5,5,5,5,5,79,5,5,85,85,5,5,5,85,85,5,5,5,5,79,5,5,5,5,79,5,5,5,5,85,85,85,5,5,79,5,5,5,85,
85,5,5,5,5,5,79,79,5,5,85,85,85,85,85,85,85,5,5,5,79,79,79,79,79,79,5,5,5,85,85,85,5,5,5,79,5,5,5,85,
85,5,5,5,5,5,5,79,79,5,5,85,85,85,85,85,85,85,5,5,5,79,5,5,5,5,5,85,85,85,85,85,5,5,5,79,5,5,5,85,
85,85,5,5,5,5,5,5,79,5,5,5,5,5,5,85,85,85,85,85,85,187,85,85,85,85,85,85,85,85,85,5,5,5,5,79,5,5,5,85,
85,85,5,5,5,5,5,5,79,5,5,5,5,5,5,5,85,85,85,85,85,187,85,85,85,85,85,5,5,5,188,5,5,5,5,79,5,5,5,85,
85,85,5,5,5,5,5,5,79,79,79,79,79,5,5,5,5,5,5,5,5,79,5,5,5,5,5,5,5,5,85,5,5,5,5,5,5,5,5,85,
85,85,5,5,5,5,5,5,5,5,5,5,79,5,5,5,5,5,5,5,5,79,5,5,5,5,5,5,5,5,85,85,85,5,5,5,5,5,85,85,
86,85,85,5,5,5,5,5,5,5,5,5,79,79,79,79,79,5,5,5,5,79,5,5,5,5,5,5,5,5,5,85,85,85,85,85,5,85,85,86,
86,85,85,5,5,5,5,5,5,5,5,5,5,5,5,5,79,79,79,79,79,79,5,5,5,5,5,5,5,5,5,5,85,85,85,85,85,85,85,86,
86,86,85,85,85,85,5,5,5,5,5,5,5,5,5,5,5,5,5,5,5,5,5,5,5,5,5,5,5,5,5,5,85,85,85,85,85,85,86,86,
86,86,86,86,85,85,85,85,85,85,85,5,5,5,5,5,5,5,5,5,5,5,5,5,5,5,5,5,5,5,5,85,85,86,86,86,86,86,86,86,
86,86,86,86,86,86,86,86,86,86,85,85,85,85,85,85,85,85,85,85,85,85,85,85,85,85,85,85,85,85,85,85,86,86,86,86,86,86,86,86,
86,86,86,86,86,86,86,86,86,86,86,86,86,86,86,86,86,86,86,86,86,86,86,86,86,86,86,86,86,86,86,86,86,86,86,86,86,86,86,86
</data>
 </layer>
 <layer id="3" name="landscape" width="40" height="24" locked="1">
  <data encoding="csv">
86,86,86,86,86,86,86,86,86,86,90,98,98,98,98,98,91,86,86,86,86,86,86,86,86,86,86,86,86,86,86,86,86,86,86,86,86,86,86,86,
86,86,86,86,86,113,86,86,86,90,99,85,85,85,85,85,97,98,98,91,86,86,86,86,86,86,1,2,2,2,2,2,15,98,91,86,86,86,86,86,
86,86,86,86,86,187,86,86,86,96,85,85,1,2,3,85,85,85,85,97,98,1,2,2,2,2,5,5,5,5,5,6,208,85,97,91,86,86,86,86,
86,86,86,86,108,187,86,86,86,96,85,1,5,5,5,2,2,3,85,85,13,5,5,5,5,5,5,5,5,5,5,9,208,85,85,95,86,86,86,86,
86,86,86,86,86,187,11,86,86,96,1,5,5,5,5,5,5,5,3,85,208,4,5,5,5,5,5,5,37,31,6,208,1,15,85,97,91,86,86,86,
86,90,98,98,1,26,6,98,91,96,7,8,8,5,5,5,5,5,5,3,208,7,5,5,5,5,5,37,40,5,9,208,10,100,85,85,97,91,86,86,
90,99,85,1,5,26,6,85,97,99,100,187,100,7,5,5,27,5,5,5,3,208,4,5,29,33,28,40,5,9,208,1,9,85,85,85,85,97,91,86,
99,85,1,5,5,26,6,85,85,85,1,3,85,100,7,5,39,38,5,5,6,208,7,5,5,26,5,5,9,208,213,10,100,85,1,2,3,85,97,98,
85,85,4,5,5,26,6,85,85,85,4,5,3,85,100,4,5,26,5,5,5,3,208,7,8,26,8,9,208,213,5,6,188,188,28,38,5,3,85,85,
85,1,5,5,5,39,38,3,85,85,4,5,5,3,85,7,5,39,28,28,38,6,211,208,208,260,208,208,213,5,5,9,117,117,4,26,5,5,3,85,
85,4,5,5,5,5,26,6,85,85,7,5,5,6,85,100,4,5,5,5,26,5,5,211,208,260,208,213,5,5,9,100,85,85,4,26,5,5,6,85,
85,4,5,5,5,5,26,5,3,85,100,7,8,9,85,85,7,5,5,5,26,5,5,5,2,26,2,5,5,9,100,85,85,1,5,26,5,5,6,85,
85,4,5,5,5,5,39,38,5,3,85,100,100,100,85,85,100,7,5,5,39,33,28,28,28,40,5,8,9,100,85,85,1,5,5,26,5,5,6,85,
85,7,5,5,5,5,5,39,38,5,3,85,85,85,85,85,85,100,7,8,8,26,8,8,8,8,9,100,100,85,85,85,4,5,5,26,5,5,6,85,
85,100,4,5,5,5,5,5,26,5,5,2,2,2,3,85,85,85,100,100,100,187,100,100,100,100,100,85,85,85,85,1,5,5,5,26,5,5,6,85,
85,85,4,5,5,5,5,5,26,5,5,5,5,5,5,3,85,85,85,85,85,187,85,85,85,85,85,1,2,3,188,4,5,5,5,32,5,5,6,85,
85,85,4,5,5,5,5,5,39,28,28,28,38,5,5,5,2,2,2,2,2,26,2,2,2,2,2,5,5,6,117,7,8,5,5,5,5,5,9,85,
85,85,7,5,5,5,5,5,5,5,5,5,26,5,5,5,5,5,5,5,5,26,5,5,5,5,5,5,5,6,85,100,100,7,8,8,5,9,100,85,
94,85,100,4,5,5,5,5,5,5,5,5,39,28,28,28,38,5,5,5,5,26,5,5,5,5,5,5,5,5,3,85,85,100,100,100,16,100,85,92,
96,85,85,7,8,8,5,5,5,5,5,5,5,5,5,5,39,28,28,28,28,40,5,5,5,5,5,5,5,5,5,3,85,85,85,85,100,85,85,95,
88,94,85,100,100,100,7,8,8,8,8,5,5,5,5,5,5,5,5,5,5,5,5,5,5,5,5,5,5,5,5,9,85,85,85,85,85,85,92,89,
86,88,93,94,85,85,100,100,100,100,100,7,8,8,8,8,8,8,8,8,8,8,8,8,8,8,8,8,8,8,9,100,85,92,93,93,93,93,89,86,
86,86,86,88,93,93,93,93,93,94,85,100,100,100,100,100,100,100,100,100,100,100,100,100,100,100,100,100,100,100,100,85,92,89,86,86,86,86,86,86,
86,86,86,86,86,86,86,86,86,88,93,93,93,93,93,93,93,93,93,93,93,93,93,93,93,93,93,93,93,93,93,93,89,86,86,86,86,86,86,86
</data>
 </layer>
 <objectgroup id="10" name="objects" locked="1">
  <object id="5" gid="355" x="655.667" y="443" width="64" height="50"/>
  <object id="6" gid="350" x="656.334" y="528.667" width="64" height="50"/>
  <object id="11" gid="277" x="72.3333" y="289.333" width="69" height="81"/>
  <object id="12" gid="317" x="42" y="371" width="89" height="95"/>
  <object id="13" gid="355" x="143.833" y="223.167" width="64" height="50"/>
  <object id="14" gid="356" x="133.667" y="355" width="63" height="117"/>
  <object id="16" gid="402" x="32" y="377" width="20" height="18"/>
  <object id="17" gid="403" x="52" y="377" width="30" height="18"/>
  <object id="18" gid="403" x="82" y="377" width="30" height="18"/>
  <object id="19" gid="403" x="112" y="377" width="30" height="18"/>
  <object id="21" gid="406" x="142" y="391" width="19" height="32"/>
  <object id="22" gid="408" x="157" y="440.75" width="4" height="50"/>
  <object id="23" gid="408" x="157" y="472.25" width="4" height="50"/>
  <object id="28" gid="408" x="157.25" y="504.75" width="4" height="50"/>
  <object id="24" gid="404" x="143.333" y="505" width="18" height="18"/>
  <object id="25" gid="403" x="113.833" y="505" width="30" height="18"/>
  <object id="26" gid="403" x="83.0833" y="505" width="31" height="18"/>
  <object id="27" gid="402" x="64.25" y="505" width="20" height="18"/>
  <object id="29" gid="352" x="120" y="661.25" width="73" height="155"/>
  <object id="30" gid="350" x="240" y="462.5" width="64" height="50"/>
  <object id="31" gid="355" x="784" y="281.5" width="64" height="50"/>
  <object id="32" gid="331" x="697.5" y="206.5" width="130" height="188"/>
  <object id="33" gid="299" x="741.5" y="279.5" width="14" height="47"/>
  <object id="34" gid="299" x="872.5" y="277.5" width="14" height="47"/>
  <object id="36" gid="299" x="1001" y="246.5" width="14" height="47"/>
  <object id="37" gid="299" x="1001" y="309" width="14" height="47"/>
  <object id="39" gid="356" x="1008" y="411" width="63" height="117"/>
  <object id="41" gid="296" x="967" y="92" width="48" height="80"/>
  <object id="42" gid="326" x="497.5" y="186" width="78" height="131"/>
  <object id="43" gid="320" x="398" y="109" width="71" height="83"/>
  <object id="44" gid="308" x="324.5" y="179" width="55" height="93"/>
  <object id="45" gid="315" x="360" y="519.5" width="95" height="107"/>
  <object id="46" gid="292" x="568" y="405.5" width="72" height="112"/>
  <object id="47" gid="299" x="836.5" y="373" width="14" height="47"/>
  <object id="48" gid="299" x="783" y="372.5" width="14" height="47"/>
  <object id="49" gid="300" x="1168.5" y="388.5" width="75" height="109"/>
  <object id="50" gid="284" x="1168.5" y="472.5" width="79" height="107"/>
  <object id="51" gid="278" x="1168.5" y="560" width="82" height="111"/>
  <object id="141" gid="398" x="563" y="596" width="16" height="14"/>
  <object id="143" gid="398" x="389" y="369" width="16" height="14"/>
  <object id="144" gid="398" x="598" y="241" width="16" height="14"/>
  <object id="145" gid="398" x="1160" y="594" width="16" height="14"/>
  <object id="146" gid="397" x="798.5" y="655" width="11" height="7"/>
  <object id="147" gid="397" x="920" y="536" width="11" height="7"/>
  <object id="148" gid="379" x="876" y="83" width="29" height="30"/>
  <object id="149" gid="375" x="880" y="95" width="22" height="12"/>
  <object id="150" gid="375" x="953" y="186" width="22" height="12"/>
  <object id="151" gid="375" x="965" y="168" width="22" height="12"/>
  <object id="152" gid="337" x="174.5" y="81" width="109" height="62"/>
  <object id="153" gid="314" x="96.5" y="157" width="41" height="106"/>
  <object id="154" gid="279" x="184" y="180" width="22" height="47"/>
  <object id="155" gid="279" x="1084" y="244.333" width="22" height="47"/>
  <object id="156" gid="379" x="80.6667" y="441" width="29" height="30"/>
  <object id="157" gid="379" x="112" y="441.667" width="29" height="30"/>
  <object id="158" gid="379" x="93.3333" y="470.333" width="29" height="30"/>
  <object id="159" gid="375" x="99" y="408" width="22" height="12"/>
  <object id="160" gid="375" x="726.667" y="528.667" width="22" height="12"/>
  <object id="161" gid="375" x="607" y="658.667" width="22" height="12"/>
  <object id="162" gid="376" x="865.5" y="693.333" width="29" height="29"/>
  <object id="163" gid="376" x="800.5" y="685.667" width="29" height="29"/>
  <object id="164" gid="376" x="831" y="669.5" width="29" height="29"/>
  <object id="165" gid="375" x="842" y="681.167" width="22" height="12"/>
  <object id="166" gid="375" x="825.333" y="638.5" width="22" height="12"/>
  <object id="167" gid="381" x="805.833" y="652" width="22" height="11"/>
  <object id="168" gid="381" x="723.333" y="644.5" width="22" height="11"/>
  <object id="169" gid="383" x="991.5" y="645.5" width="28" height="30"/>
  <object id="171" gid="386" x="824.167" y="552.833" width="29" height="29"/>
  <object id="172" gid="381" x="957.667" y="683.333" width="22" height="11"/>
  <object id="173" gid="376" x="796.167" y="564.167" width="29" height="29"/>
  <object id="174" gid="400" x="874.167" y="659.167" width="26" height="18"/>
  <object id="175" gid="392" x="494.333" y="628" width="27" height="19"/>
  <object id="176" gid="393" x="263.333" y="410.333" width="21" height="17"/>
  <object id="177" gid="393" x="319.333" y="559.667" width="21" height="17"/>
  <object id="178" gid="392" x="754.333" y="421.333" width="27" height="19"/>
  <object id="179" gid="395" x="662.333" y="369.667" width="27" height="21"/>
  <object id="180" gid="394" x="531.667" y="258.333" width="14" height="10"/>
  <object id="181" gid="381" x="869" y="406" width="22" height="11"/>
  <object id="182" gid="381" x="893" y="406" width="22" height="11"/>
  <object id="183" gid="375" x="963.667" y="344.667" width="22" height="12"/>
  <object id="184" gid="375" x="935.667" y="356.667" width="22" height="12"/>
  <object id="185" gid="375" x="925" y="372.667" width="22" height="12"/>
  <object id="186" gid="375" x="471.667" y="211.333" width="22" height="12"/>
  <object id="187" gid="375" x="579.667" y="200.667" width="22" height="12"/>
  <object id="188" gid="375" x="491.667" y="270" width="22" height="12"/>
  <object id="189" gid="375" x="395.667" y="156.667" width="22" height="12"/>
  <object id="190" gid="381" x="921" y="74" width="22" height="11"/>
  <object id="191" gid="381" x="491.667" y="288.667" width="22" height="11"/>
  <object id="192" gid="381" x="519.667" y="348.667" width="22" height="11"/>
  <object id="193" gid="381" x="325" y="176.667" width="22" height="11"/>
  <object id="194" gid="381" x="131.667" y="176.667" width="22" height="11"/>
  <object id="195" gid="381" x="249" y="643.333" width="22" height="11"/>
  <object id="196" gid="381" x="458.333" y="535.333" width="22" height="11"/>
  <object id="197" gid="381" x="459.667" y="678" width="22" height="11"/>
  <object id="198" gid="381" x="603.667" y="558" width="22" height="11"/>
  <object id="199" gid="381" x="1077" y="371.333" width="22" height="11"/>
  <object id="200" gid="381" x="1067.67" y="516.667" width="22" height="11"/>
  <object id="201" gid="379" x="1075.33" y="440.333" width="29" height="30"/>
  <object id="202" gid="379" x="712.667" y="228.333" width="29" height="30"/>
  <object id="204" gid="408" x="773" y="639" width="4" height="50"/>
  <object id="205" gid="408" x="773" y="670.5" width="4" height="50"/>
  <object id="206" gid="408" x="773" y="702" width="4" height="50"/>
  <object id="207" gid="408" x="773" y="550.083" width="4" height="50"/>
  <object id="208" gid="408" x="773" y="575" width="4" height="50"/>
  <object id="209" gid="408" x="773" y="607" width="4" height="50"/>
  <object id="210" gid="408" x="1057" y="481" width="4" height="50"/>
  <object id="211" gid="408" x="1057" y="512.5" width="4" height="50"/>
  <object id="212" gid="408" x="1057" y="545" width="4" height="50"/>
  <object id="233" gid="402" x="1023" y="449" width="20" height="18"/>
  <object id="235" gid="404" x="1042.75" y="449" width="18" height="18"/>
  <object id="240" gid="349" x="877.5" y="749" width="102" height="284"/>
  <object id="242" gid="279" x="683.667" y="645.333" width="22" height="47"/>
  <object id="243" gid="299" x="329.667" y="552.667" width="14" height="47"/>
  <object id="244" gid="299" x="497" y="618.667" width="14" height="47"/>
  <object id="245" gid="465" x="580.333" y="144.667" width="26" height="43"/>
  <object id="246" gid="477" x="592" y="201.167" width="53" height="69"/>
  <object id="247" gid="510" x="359.333" y="353" width="28" height="66"/>
  <object id="248" gid="411" x="327" y="301" width="82" height="126"/>
  <object id="250" gid="412" x="392.333" y="380.333" width="82" height="126"/>
  <object id="251" gid="418" x="670.667" y="269.333" width="32" height="24"/>
  <object id="252" gid="419" x="928" y="295.333" width="16" height="31"/>
  <object id="253" gid="492" x="630.333" y="198.5" width="31" height="17"/>
  <object id="254" gid="490" x="1046.67" y="140" width="16" height="31"/>
  <object id="255" gid="551" x="160.5" y="149" width="32" height="32"/>
 </objectgroup>
</map>
